dist/images/ico/ico_home_01.svg

<svg width="15" height="15" viewBox="0 0 15 15" fill="none" xmlns="http://www.w3.org/2000/svg">
<path d="M5.86777 13.6594V9.45647H9.12861V13.6594C9.12861 14.1217 9.49545 14.5 9.94382 14.5H12.3895C12.8378 14.5 13.2047 14.1217 13.2047 13.6594V7.77529H14.5905C14.9655 7.77529 15.1449 7.29616 14.8595 7.04398L8.04438 0.71435C7.7346 0.42855 7.26178 0.42855 6.952 0.71435L0.136835 7.04398C-0.140337 7.29616 0.0308573 7.77529 0.405854 7.77529H1.79171V13.6594C1.79171 14.1217 2.15856 14.5 2.60692 14.5H5.05256C5.50092 14.5 5.86777 14.1217 5.86777 13.6594Z" fill="white"/>
</svg>

<svg width="15" height="15" fill="none" xmlns="http://www.w3.org/2000/svg"><path d="M5.868 13.66V9.455h3.26v4.203a.83.83 0 00.816.841h2.445a.83.83 0 00.816-.84V7.774h1.386c.375 0 .554-.479.269-.731L8.044.714a.803.803 0 00-1.092 0L.137 7.044c-.277.252-.106.731.269.731h1.386v5.884c0 .463.367.841.815.841h2.446a.83.83 0 00.815-.84z" fill="#fff"/></svg>
